svg/line/create-dashboard.svg

<svg xmlns="http://www.w3.org/2000/svg" data-name="Layer 1" viewBox="0 0 24 24"><path d="M10 13H4a1 1 0 0 0-1 1v6a1 1 0 0 0 1 1h6a1 1 0 0 0 1-1v-6a1 1 0 0 0-1-1Zm-1 6H5v-4h4ZM20 3h-6a1 1 0 0 0-1 1v6a1 1 0 0 0 1 1h6a1 1 0 0 0 1-1V4a1 1 0 0 0-1-1Zm-1 6h-4V5h4Zm1 7h-2v-2a1 1 0 0 0-2 0v2h-2a1 1 0 0 0 0 2h2v2a1 1 0 0 0 2 0v-2h2a1 1 0 0 0 0-2ZM10 3H4a1 1 0 0 0-1 1v6a1 1 0 0 0 1 1h6a1 1 0 0 0 1-1V4a1 1 0 0 0-1-1ZM9 9H5V5h4Z"/></svg>

<svg xmlns="http://www.w3.org/2000/svg" data-name="Layer 1" viewBox="0 0 24 24"><path d="M10,13H4a1,1,0,0,0-1,1v6a1,1,0,0,0,1,1h6a1,1,0,0,0,1-1V14A1,1,0,0,0,10,13ZM9,19H5V15H9ZM20,3H14a1,1,0,0,0-1,1v6a1,1,0,0,0,1,1h6a1,1,0,0,0,1-1V4A1,1,0,0,0,20,3ZM19,9H15V5h4Zm1,7H18V14a1,1,0,0,0-2,0v2H14a1,1,0,0,0,0,2h2v2a1,1,0,0,0,2,0V18h2a1,1,0,0,0,0-2ZM10,3H4A1,1,0,0,0,3,4v6a1,1,0,0,0,1,1h6a1,1,0,0,0,1-1V4A1,1,0,0,0,10,3ZM9,9H5V5H9Z"/></svg>
